packages/core/src/svgs/hgt.svg

<svg width="24" height="24" viewBox="0 0 24 24" fill="none" xmlns="http://www.w3.org/2000/svg">
<g clip-path="url(#clip0_31_11415)">
<path d="M0 0H24V24H0V0Z" fill="#FFC908"/>
<path d="M8.99997 9.0135V5.14307L12 7.96478L8.99997 9.0135ZM8.99997 14.9938V18.8574L12 16.0356L8.99997 14.9938ZM8.99997 9.00021H5.14282L7.95982 12.0534L8.99997 9.00021ZM15 9.00021H18.8571L16.047 11.9522L15 9.00021ZM15 9.0135V5.14307L12 7.96478L15 9.0135ZM15 14.9972V18.8574L12 16.0356L15 14.9972ZM8.99997 15.0002H5.14282L7.97354 12.0598L8.99997 15.0002ZM15 15.0002H18.8571L16.0307 11.9844L15 15.0002Z" fill="white"/>
<path d="M12 13.7142C12.9465 13.7142 13.7138 12.9467 13.7138 11.9999C13.7138 11.0532 12.9465 10.2856 12 10.2856C11.0535 10.2856 10.2861 11.0532 10.2861 11.9999C10.2861 12.9467 11.0535 13.7142 12 13.7142Z" fill="white"/>
</g>
<defs>
<clipPath id="clip0_31_11415">
<rect width="24" height="24" fill="white"/>
</clipPath>
</defs>
</svg>

<svg xmlns="http://www.w3.org/2000/svg" width="24" height="24" fill="none" viewBox="0 0 24 24"><g clip-path="url(#a)"><path fill="#FFC908" d="M0 0h24v24H0z"/><path fill="#fff" d="M9 9.014v-3.87l3 2.82zm0 5.98v3.863l3-2.821zM9 9H5.143l2.817 3.053zm6 0h3.857l-2.81 2.952zm0 .014v-3.87l-3 2.82zm0 5.983v3.86l-3-2.821zM9 15H5.143l2.83-2.94zm6 0h3.857l-2.826-3.016zM12 13.714a1.714 1.714 0 1 0 0-3.428 1.714 1.714 0 0 0 0 3.428"/></g><defs><clipPath id="a"><path fill="#fff" d="M0 0h24v24H0z"/></clipPath></defs></svg>
